icon-svg/peugeot-alt.svg

<svg xmlns="http://www.w3.org/2000/svg" fill="#44739e" viewBox="0 0 24 24"><path d="M5.27 5.235V4.81c.161-.021.316-.042.471-.06q.264-.031.528-.057c.114-.012.143.016.147.135v.143c0 .106-.027.136-.133.149-.242.03-.484.055-.726.083ZM16.78 5v.259c0 .086-.038.131-.134.124-.319-.021-.639-.045-.958-.07-.086-.007-.128-.043-.131-.124a8.7 8.7 0 0 1 0-.56c0-.086.044-.12.132-.113.32.023.639.048.959.076.1.009.129.046.133.15.002.089 0 .175-.001.258m3.366-1.366c.011.446.029.873.032 1.3 0 .682.014 1.364 0 2.045a21.38 21.38 0 0 1-.713 5.235 13.49 13.49 0 0 1-3.51 6.042 14 14 0 0 1-3.825 2.707.256.256 0 0 1-.253 0 13.72 13.72 0 0 1-6.352-6.187 14.25 14.25 0 0 1-1.183-3.342 20.8 20.8 0 0 1-.412-2.643 33.2 33.2 0 0 1-.11-3.582c.006-.475.021-.95.032-1.425 0-.047.006-.094.009-.152a49.01 49.01 0 0 1 16.285.002M12.892 18.4c.1-.184.2-.341.281-.5a1.29 1.29 0 0 1 .325-.4c.774-.638 1.546-1.279 2.322-1.913a.58.58 0 0 0 .216-.326 10 10 0 0 0 .268-1.747 8.64 8.64 0 0 0-.031-1.438.605.605 0 0 0-.11-.291 13.9 13.9 0 0 0-1.363-1.66.362.362 0 0 0-.22-.115c.006.045.008.082.016.118.09.423.183.844.27 1.267a.478.478 0 0 0 .143.258 5.5 5.5 0 0 1 .665.775.815.815 0 0 1 .151.429 13.7 13.7 0 0 1-.046 2.228.5.5 0 0 1-.194.35c-.7.6-1.4 1.2-2.092 1.807a1.67 1.67 0 0 0-.449.536c0 .007-.016.01-.026.015a1.53 1.53 0 0 1-.09-1.011c.119-.395.221-.794.33-1.192.015-.054.027-.109.04-.163l-.029-.012c-.021.04-.043.08-.061.122-.138.316-.278.632-.41.951-.095.231-.178.466-.268.7a.456.456 0 0 0 .006.362c.1.233.192.47.288.706.017.037.037.074.068.144m-2.147-7.964h-.05c.006.112.009.226.02.338.014.153.034.3.051.457a.464.464 0 0 1-.071.316c-.072.114-.136.232-.21.344a24.7 24.7 0 0 1-1.768 2.342.686.686 0 0 0-.179.383c-.027.267-.057.534-.088.8a.49.49 0 0 0 .078.33c.092.14.18.283.28.418a22 22 0 0 0 1.719 2.049 1.97 1.97 0 0 0 .662.5c.084.035.163.082.245.121a.8.8 0 0 0 .084.027l.018-.027a1.07 1.07 0 0 0-.154-.14 2.26 2.26 0 0 1-.532-.457 23.3 23.3 0 0 1-1.643-2.076c-.107-.153-.2-.315-.3-.473a.466.466 0 0 1-.073-.3c.021-.191.04-.382.064-.572a.426.426 0 0 1 .146-.257c.172-.16.343-.322.508-.489a2.006 2.006 0 0 0 .679-.966c.238-.508.455-1.025.682-1.538a.41.41 0 0 0 .046-.265c-.07-.294-.143-.582-.214-.87zm.971-3.173v.041c.075 0 .15.009.225.006.436-.015.872-.031 1.308-.051a.93.93 0 0 1 .448.08c.217.1.435.2.656.294a.97.97 0 0 0 .274.073c.181.021.365.019.545.042a.87.87 0 0 1 .314.089c.385.216.763.442 1.142.669a.453.453 0 0 0 .294.076c-.279-.267-.538-.515-.8-.762a.3.3 0 0 0-.059-.04c-.606-.342-1.213-.68-1.846-.97a1.15 1.15 0 0 0-.431-.1c-.292-.011-.584-.028-.877-.038a21.9 21.9 0 0 0-2.458.055.325.325 0 0 0-.3.188 1.33 1.33 0 0 1-.355.411 7.46 7.46 0 0 1-.849.64.293.293 0 0 0-.154.177c.139-.077.259-.146.381-.211.51-.276 1.021-.55 1.532-.826a.92.92 0 0 1 .424-.117c.24 0 .479-.029.719-.033.6-.008 1.209-.01 1.813-.013a.478.478 0 0 1 .286.09c-.741.057-1.489.119-2.232.225Zm-5.108 3.129a.6.6 0 0 1-.156.413c-.1.1-.194.213-.287.323-.066.078-.071.113-.011.191.117.152.24.3.366.445a.6.6 0 0 0 .136.084c.039-.176.076-.329.108-.484a.2.2 0 0 1 .178-.176c.279-.051.555-.111.833-.165.167-.033.335-.062.521-.095-.044-.054-.072-.091-.1-.125-.1-.1-.206-.2-.3-.311a.513.513 0 0 0-.427-.194 2.7 2.7 0 0 1-.31-.026l-.01-.028a1.2 1.2 0 0 1 .108-.079.6.6 0 0 1 .094-.035L8.8 9.58a.623.623 0 0 0 .333-.306.073.073 0 0 0-.052.017 1.155 1.155 0 0 1-.6.263c-.071.014-.14.034-.21.051a.377.377 0 0 1-.252-.013.27.27 0 0 0-.152-.011c-.1.017-.205.047-.308.07-.028.006-.058.007-.111.013a.635.635 0 0 1 .25-.183c.1-.034.2-.078.3-.111a.153.153 0 0 0 .124-.152c.005-.091.03-.18.04-.271a.205.205 0 0 1 .091-.154c.12-.089.237-.18.354-.272a.158.158 0 0 0 .084-.121c-.178.106-.335.208-.5.3a1.9 1.9 0 0 0-.71.636.89.89 0 0 1-.2.2c-.346.267-.7.527-1.041.8a2.2 2.2 0 0 0-.27.259c-.1.11-.074.236.062.328.067-.048.137-.1.206-.149a.69.69 0 0 0 .265-.276c.015-.048.068-.074.105-.106m7.448-1.685a1.13 1.13 0 0 0 .52-.01c.126-.045.262-.059.391-.1a.405.405 0 0 1 .4.084c.287.234.575.466.867.692a1.6 1.6 0 0 0 .294.175c.191.09.387.169.582.251a.3.3 0 0 1 .191.234c.007.038.02.074.026.112.057.4.111.8.171 1.2a1.115 1.115 0 0 1-.119.7c-.146.281-.289.563-.439.842a.43.43 0 0 1-.134.165.468.468 0 0 0-.245.475 1.7 1.7 0 0 1-.011.233.36.36 0 0 0 .113-.106 10.74 10.74 0 0 0 1.017-1.72.5.5 0 0 0 .048-.164 7.85 7.85 0 0 0-.081-2.137.34.34 0 0 0-.147-.235 13.1 13.1 0 0 0-1.96-1.152.467.467 0 0 0-.414-.014c-.321.14-.644.275-.965.414a1 1 0 0 0-.105.061m-1.8 10.268a.825.825 0 0 0-.075-.423c-.065-.133-.12-.272-.174-.411-.168-.433-.337-.867-.5-1.3a.74.74 0 0 1-.045-.309c.027-.292.058-.584.113-.871.146-.768.306-1.533.459-2.3a1.19 1.19 0 0 0-.071-.5.44.44 0 0 0-.064.117c-.089.233-.181.465-.266.7-.263.726-.511 1.457-.707 2.205a.85.85 0 0 0 .046.585 26.6 26.6 0 0 0 1.228 2.426c.02.028.041.054.059.081zM8.355 8.936l.011.034c.1 0 .207.007.31 0a3.15 3.15 0 0 0 .7-.069c.293-.09.586-.178.877-.275a.3.3 0 0 0 .156-.114c.158-.257.306-.52.456-.782a.22.22 0 0 0 .011-.057 1.45 1.45 0 0 0-.609.042c-.329.131-.654.273-.976.42a.7.7 0 0 0-.208.169 3.4 3.4 0 0 0-.263.323.622.622 0 0 1-.326.245 1.1 1.1 0 0 0-.139.064m.026 2.229-.006.03c.042.017.084.036.127.051.23.084.461.165.69.25a.247.247 0 0 1 .146.378 5.03 5.03 0 0 1-.557.837.39.39 0 0 1-.158.118c-.206.076-.418.139-.627.211a.166.166 0 0 1-.183-.04c-.068-.062-.137-.12-.207-.179-.024-.02-.051-.035-.089-.062a.99.99 0 0 0 .038.509 3.4 3.4 0 0 1 .151.479c.037.134.063.271.1.406.025.094.052.117.144.1a2.8 2.8 0 0 0 .413-.12.77.77 0 0 0 .186-.145.165.165 0 0 0-.106-.012c-.113.025-.224.054-.337.075s-.118 0-.138-.094c-.028-.142-.052-.283-.076-.425s-.015-.138.117-.183c.29-.1.58-.2.871-.3a.3.3 0 0 0 .182-.13c.213-.376.427-.751.637-1.128a.17.17 0 0 0 .02-.122.372.372 0 0 0-.253-.271c-.3-.072-.6-.151-.908-.223a1 1 0 0 0-.177-.01m4.774-.589c-.008-.048-.011-.076-.017-.1q-.088-.421-.178-.843a.307.307 0 0 1 .052-.3 1.4 1.4 0 0 0 .128-.19c.234-.38.231-.269.126-.761a.2.2 0 0 0-.015-.055.13.13 0 0 0-.043-.056.528.528 0 0 0-.378-.1c-.393.084-.789.157-1.183.237a.342.342 0 0 0-.284.329c.084.016.169.026.252.048a.524.524 0 0 0 .348-.036c.243-.1.492-.188.735-.289a.32.32 0 0 1 .263.007.278.278 0 0 1 .116.394c-.107.148-.216.293-.329.436a.193.193 0 0 0-.038.2c.092.287.18.576.267.865a.345.345 0 0 0 .178.214M8.593 5.3l-1.287.09v-.31l1.141-.089V4.8l-1.139.082V4.6l1.282-.1c0-.039.008-.067.008-.095a1 1 0 0 0-.009-.1l-1.489.11V5.6l1.5-.114Zm4.007-.1h-1.025c-.106 0-.145-.043-.147-.151v-.446c0-.176.023-.2.2-.2h1.107V4.21c-.031 0-.054-.008-.078-.008h-1.036a.84.84 0 0 0-.157.018.251.251 0 0 0-.234.251c-.011.225-.01.451 0 .676a.229.229 0 0 0 .218.23 1.3 1.3 0 0 0 .186.016h1.05c.042 0 .083-.006.135-.01.006-.237.01-.463 0-.692H12v.191h.6zm.938-.78 1.3.047v-.19c-.5-.024-1-.053-1.508-.054v1.181l1.516.058-.008-.194-1.295-.053v-.297h.581c.191 0 .378.034.566.017v-.188L13.54 4.7Zm3.445.6v-.3a.291.291 0 0 0-.227-.295.6.6 0 0 0-.14-.028c-.291-.024-.583-.045-.874-.066a.93.93 0 0 0-.158 0c-.152.015-.231.084-.237.237-.008.22-.008.441 0 .66a.253.253 0 0 0 .227.259 1.5 1.5 0 0 0 .2.029c.21.017.42.034.631.048a3 3 0 0 0 .344.009.222.222 0 0 0 .233-.239c.007-.102.003-.207.003-.313ZM5.26 5.435c.273-.032.525-.059.777-.09a3.6 3.6 0 0 0 .354-.053.259.259 0 0 0 .219-.22 1.7 1.7 0 0 0 0-.371.213.213 0 0 0-.2-.194.64.64 0 0 0-.155-.007c-.233.023-.466.047-.7.074-.165.019-.33.042-.5.064v1.186l.2-.024ZM9.316 4.27l-.216.011v.829c0 .244.085.325.331.334h.029c.307-.012.614-.019.921-.037.248-.015.326-.105.328-.357v-.706c0-.037-.005-.074-.008-.116h-.2c0 .053-.007.1-.008.147v.691c0 .118-.024.145-.142.151q-.453.024-.906.037c-.107 0-.133-.028-.135-.139s0-.24 0-.36zm9.625.363-1.573-.175v.2l.684.077v.986l.216.029v-.993l.673.071zm-9.9 7.456-.031-.032-.95.784.013.027c.17-.06.34-.118.51-.18a.16.16 0 0 0 .066-.053c.134-.181.264-.364.394-.546zm-1.856-.4a.509.509 0 0 0-.377.254l.282.326a1 1 0 0 0 .027-.1c.024-.152.045-.303.07-.481zM8.443 9.13l-.013.27c.287-.03.332-.081.256-.281ZM3.166 2.986a52.1 52.1 0 0 1 7.889-.76 51.55 51.55 0 0 1 9.773.759c0 .036.012.064.013.092.039 1.123.072 2.245.054 3.369a27.6 27.6 0 0 1-.256 3.454 17.13 17.13 0 0 1-1.164 4.322 14.43 14.43 0 0 1-5.509 6.505 14.6 14.6 0 0 1-1.866 1.03.216.216 0 0 1-.2 0 14.478 14.478 0 0 1-7.932-9.071 17.74 17.74 0 0 1-.614-2.838A28.9 28.9 0 0 1 3.1 5.5c.008-.792.035-1.583.054-2.375.003-.044.008-.087.012-.139m.362.367v.178c-.01.389-.02.777-.032 1.166a35.3 35.3 0 0 0 .086 3.943 21.3 21.3 0 0 0 .382 2.633 14.6 14.6 0 0 0 1.366 3.854 14.11 14.11 0 0 0 6.553 6.208.258.258 0 0 0 .243-.006 13.96 13.96 0 0 0 2.01-1.148 13.9 13.9 0 0 0 4.825-5.645 16.2 16.2 0 0 0 1.306-4.578 24.2 24.2 0 0 0 .244-3.315c0-.9-.015-1.8-.026-2.707 0-.191-.015-.382-.023-.584a49.21 49.21 0 0 0-16.934 0z"/></svg>

<?xml version="1.0" encoding="UTF-8"?>
<svg width="24px" fill="#44739e" height="24px" viewBox="0 0 24 24" version="1.1" xmlns="http://www.w3.org/2000/svg" xmlns:xlink="http://www.w3.org/1999/xlink">
            <path d="M 5.27,5.235 V 4.81 C 5.431,4.789 5.586,4.768 5.741,4.75 Q 6.005,4.719 6.269,4.693 c 0.114,-0.012 0.143,0.016 0.147,0.135 0,0.047 0,0.095 0,0.143 0,0.106 -0.027,0.136 -0.133,0.149 C 6.041,5.15 5.799,5.175 5.557,5.203 Z M 16.78,5 c 0,0.087 0,0.173 0,0.259 0,0.086 -0.038,0.131 -0.134,0.124 C 16.327,5.362 16.007,5.338 15.688,5.313 15.602,5.306 15.56,5.27 15.557,5.189 c -0.006,-0.187 -0.006,-0.374 0,-0.56 0,-0.086 0.044,-0.12 0.132,-0.113 0.32,0.023 0.639,0.048 0.959,0.076 0.1,0.009 0.129,0.046 0.133,0.15 0.002,0.089 0,0.175 -10e-4,0.258 z m 3.366,-1.366 c 0.011,0.446 0.029,0.873 0.032,1.3 0,0.682 0.014,1.364 0,2.045 a 21.38,21.38 0 0 1 -0.713,5.235 13.491,13.491 0 0 1 -3.51,6.042 14,14 0 0 1 -3.825,2.707 0.256,0.256 0 0 1 -0.253,0 A 13.719,13.719 0 0 1 5.525,14.776 14.252,14.252 0 0 1 4.342,11.434 20.838,20.838 0 0 1 3.93,8.791 33.194,33.194 0 0 1 3.82,5.209 C 3.826,4.734 3.841,4.259 3.852,3.784 3.852,3.737 3.858,3.69 3.861,3.632 A 49.01,49.01 0 0 1 20.146,3.634 Z M 12.892,18.4 c 0.1,-0.184 0.2,-0.341 0.281,-0.5 a 1.294,1.294 0 0 1 0.325,-0.4 c 0.774,-0.638 1.546,-1.279 2.322,-1.913 a 0.581,0.581 0 0 0 0.216,-0.326 10.009,10.009 0 0 0 0.268,-1.747 8.635,8.635 0 0 0 -0.031,-1.438 0.605,0.605 0 0 0 -0.11,-0.291 13.928,13.928 0 0 0 -1.363,-1.66 0.362,0.362 0 0 0 -0.22,-0.115 c 0.006,0.045 0.008,0.082 0.016,0.118 0.09,0.423 0.183,0.844 0.27,1.267 a 0.478,0.478 0 0 0 0.143,0.258 5.518,5.518 0 0 1 0.665,0.775 0.815,0.815 0 0 1 0.151,0.429 13.7,13.7 0 0 1 -0.046,2.228 0.5,0.5 0 0 1 -0.194,0.35 c -0.7,0.6 -1.4,1.2 -2.092,1.807 a 1.671,1.671 0 0 0 -0.449,0.536 c 0,0.007 -0.016,0.01 -0.026,0.015 a 1.529,1.529 0 0 1 -0.09,-1.011 c 0.119,-0.395 0.221,-0.794 0.33,-1.192 0.015,-0.054 0.027,-0.109 0.04,-0.163 l -0.029,-0.012 c -0.021,0.04 -0.043,0.08 -0.061,0.122 -0.138,0.316 -0.278,0.632 -0.41,0.951 -0.095,0.231 -0.178,0.466 -0.268,0.7 a 0.456,0.456 0 0 0 0.006,0.362 c 0.1,0.233 0.192,0.47 0.288,0.706 0.017,0.037 0.037,0.074 0.068,0.144 z m -2.147,-7.964 h -0.05 c 0.006,0.112 0.009,0.226 0.02,0.338 0.014,0.153 0.034,0.3 0.051,0.457 a 0.464,0.464 0 0 1 -0.071,0.316 c -0.072,0.114 -0.136,0.232 -0.21,0.344 a 24.68,24.68 0 0 1 -1.768,2.342 0.686,0.686 0 0 0 -0.179,0.383 c -0.027,0.267 -0.057,0.534 -0.088,0.8 a 0.491,0.491 0 0 0 0.078,0.33 c 0.092,0.14 0.18,0.283 0.28,0.418 a 21.981,21.981 0 0 0 1.719,2.049 1.971,1.971 0 0 0 0.662,0.5 c 0.084,0.035 0.163,0.082 0.245,0.121 a 0.821,0.821 0 0 0 0.084,0.027 l 0.018,-0.027 A 1.065,1.065 0 0 0 11.382,18.694 2.26,2.26 0 0 1 10.85,18.237 23.284,23.284 0 0 1 9.207,16.161 C 9.1,16.008 9.007,15.846 8.907,15.688 a 0.466,0.466 0 0 1 -0.073,-0.3 c 0.021,-0.191 0.04,-0.382 0.064,-0.572 a 0.426,0.426 0 0 1 0.146,-0.257 c 0.172,-0.16 0.343,-0.322 0.508,-0.489 a 2.006,2.006 0 0 0 0.679,-0.966 c 0.238,-0.508 0.455,-1.025 0.682,-1.538 a 0.41,0.41 0 0 0 0.046,-0.265 c -0.07,-0.294 -0.143,-0.582 -0.214,-0.87 z m 0.971,-3.173 v 0.041 c 0.075,0 0.15,0.009 0.225,0.006 0.436,-0.015 0.872,-0.031 1.308,-0.051 a 0.931,0.931 0 0 1 0.448,0.08 c 0.217,0.1 0.435,0.2 0.656,0.294 a 0.966,0.966 0 0 0 0.274,0.073 c 0.181,0.021 0.365,0.019 0.545,0.042 a 0.867,0.867 0 0 1 0.314,0.089 c 0.385,0.216 0.763,0.442 1.142,0.669 a 0.453,0.453 0 0 0 0.294,0.076 C 16.643,8.315 16.384,8.067 16.122,7.82 A 0.306,0.306 0 0 0 16.063,7.78 C 15.457,7.438 14.85,7.1 14.217,6.81 A 1.149,1.149 0 0 0 13.786,6.71 C 13.494,6.699 13.202,6.682 12.909,6.672 A 21.919,21.919 0 0 0 10.451,6.727 0.325,0.325 0 0 0 10.151,6.915 1.333,1.333 0 0 1 9.796,7.326 7.456,7.456 0 0 1 8.947,7.966 0.293,0.293 0 0 0 8.793,8.143 C 8.932,8.066 9.052,7.997 9.174,7.932 9.684,7.656 10.195,7.382 10.706,7.106 A 0.923,0.923 0 0 1 11.13,6.989 c 0.24,0 0.479,-0.029 0.719,-0.033 0.6,-0.008 1.209,-0.01 1.813,-0.013 a 0.478,0.478 0 0 1 0.286,0.09 C 13.207,7.09 12.459,7.152 11.716,7.258 Z m -5.108,3.129 a 0.6,0.6 0 0 1 -0.156,0.413 c -0.1,0.1 -0.194,0.213 -0.287,0.323 -0.066,0.078 -0.071,0.113 -0.011,0.191 0.117,0.152 0.24,0.3 0.366,0.445 a 0.6,0.6 0 0 0 0.136,0.084 C 6.695,11.672 6.732,11.519 6.764,11.364 A 0.2,0.2 0 0 1 6.942,11.188 C 7.221,11.137 7.497,11.077 7.775,11.023 7.942,10.99 8.11,10.961 8.296,10.928 8.252,10.874 8.224,10.837 8.196,10.803 c -0.1,-0.1 -0.206,-0.2 -0.3,-0.311 A 0.513,0.513 0 0 0 7.469,10.298 2.7,2.7 0 0 1 7.159,10.272 L 7.149,10.244 A 1.145,1.145 0 0 1 7.257,10.165 0.586,0.586 0 0 1 7.351,10.13 L 8.8,9.58 A 0.623,0.623 0 0 0 9.133,9.274 0.073,0.073 0 0 0 9.081,9.291 1.155,1.155 0 0 1 8.481,9.554 C 8.41,9.568 8.341,9.588 8.271,9.605 A 0.377,0.377 0 0 1 8.019,9.592 0.27,0.27 0 0 0 7.867,9.581 C 7.767,9.598 7.662,9.628 7.559,9.651 7.531,9.657 7.501,9.658 7.448,9.664 a 0.635,0.635 0 0 1 0.25,-0.183 c 0.1,-0.034 0.2,-0.078 0.3,-0.111 A 0.153,0.153 0 0 0 8.122,9.218 C 8.127,9.127 8.152,9.038 8.162,8.947 A 0.205,0.205 0 0 1 8.253,8.793 C 8.373,8.704 8.49,8.613 8.607,8.521 A 0.158,0.158 0 0 0 8.691,8.4 C 8.513,8.506 8.356,8.608 8.191,8.7 a 1.9,1.9 0 0 0 -0.71,0.636 0.892,0.892 0 0 1 -0.2,0.2 c -0.346,0.267 -0.7,0.527 -1.041,0.8 a 2.2,2.2 0 0 0 -0.27,0.259 c -0.1,0.11 -0.074,0.236 0.062,0.328 0.067,-0.048 0.137,-0.1 0.206,-0.149 A 0.691,0.691 0 0 0 6.503,10.498 C 6.518,10.45 6.571,10.424 6.608,10.392 Z m 7.448,-1.685 a 1.133,1.133 0 0 0 0.52,-0.01 c 0.126,-0.045 0.262,-0.059 0.391,-0.1 a 0.405,0.405 0 0 1 0.4,0.084 c 0.287,0.234 0.575,0.466 0.867,0.692 a 1.585,1.585 0 0 0 0.294,0.175 c 0.191,0.09 0.387,0.169 0.582,0.251 a 0.3,0.3 0 0 1 0.191,0.234 c 0.007,0.038 0.02,0.074 0.026,0.112 0.057,0.4 0.111,0.8 0.171,1.2 a 1.115,1.115 0 0 1 -0.119,0.7 c -0.146,0.281 -0.289,0.563 -0.439,0.842 a 0.429,0.429 0 0 1 -0.134,0.165 0.468,0.468 0 0 0 -0.245,0.475 1.66,1.66 0 0 1 -0.011,0.233 0.364,0.364 0 0 0 0.113,-0.106 10.742,10.742 0 0 0 1.017,-1.72 A 0.5,0.5 0 0 0 17.728,11.77 7.848,7.848 0 0 0 17.647,9.633 0.339,0.339 0 0 0 17.5,9.398 13.121,13.121 0 0 0 15.54,8.246 0.467,0.467 0 0 0 15.126,8.232 c -0.321,0.14 -0.644,0.275 -0.965,0.414 a 1.057,1.057 0 0 0 -0.105,0.061 z m -1.8,10.268 a 0.825,0.825 0 0 0 -0.075,-0.423 c -0.065,-0.133 -0.12,-0.272 -0.174,-0.411 -0.168,-0.433 -0.337,-0.867 -0.5,-1.3 a 0.743,0.743 0 0 1 -0.045,-0.309 c 0.027,-0.292 0.058,-0.584 0.113,-0.871 0.146,-0.768 0.306,-1.533 0.459,-2.3 a 1.19,1.19 0 0 0 -0.071,-0.5 0.437,0.437 0 0 0 -0.064,0.117 c -0.089,0.233 -0.181,0.465 -0.266,0.7 -0.263,0.726 -0.511,1.457 -0.707,2.205 a 0.85,0.85 0 0 0 0.046,0.585 26.637,26.637 0 0 0 1.228,2.426 c 0.02,0.028 0.041,0.054 0.059,0.081 z M 8.355,8.936 8.366,8.97 c 0.1,0 0.207,0.007 0.31,0 a 3.152,3.152 0 0 0 0.7,-0.069 C 9.669,8.811 9.962,8.723 10.253,8.626 A 0.3,0.3 0 0 0 10.409,8.512 C 10.567,8.255 10.715,7.992 10.865,7.73 A 0.222,0.222 0 0 0 10.876,7.673 1.447,1.447 0 0 0 10.267,7.715 C 9.938,7.846 9.613,7.988 9.291,8.135 A 0.7,0.7 0 0 0 9.083,8.304 3.4,3.4 0 0 0 8.82,8.627 0.622,0.622 0 0 1 8.494,8.872 1.081,1.081 0 0 0 8.355,8.936 Z m 0.026,2.229 -0.006,0.03 c 0.042,0.017 0.084,0.036 0.127,0.051 0.23,0.084 0.461,0.165 0.69,0.25 a 0.247,0.247 0 0 1 0.146,0.378 5.033,5.033 0 0 1 -0.557,0.837 0.39,0.39 0 0 1 -0.158,0.118 C 8.417,12.905 8.205,12.968 7.996,13.04 A 0.166,0.166 0 0 1 7.813,13 C 7.745,12.938 7.676,12.88 7.606,12.821 7.582,12.801 7.555,12.786 7.517,12.759 a 0.99,0.99 0 0 0 0.038,0.509 3.376,3.376 0 0 1 0.151,0.479 c 0.037,0.134 0.063,0.271 0.1,0.406 0.025,0.094 0.052,0.117 0.144,0.1 A 2.792,2.792 0 0 0 8.363,14.133 0.768,0.768 0 0 0 8.549,13.988 0.165,0.165 0 0 0 8.443,13.976 C 8.33,14.001 8.219,14.03 8.106,14.051 7.993,14.072 7.988,14.051 7.968,13.957 7.94,13.815 7.916,13.674 7.892,13.532 7.868,13.39 7.877,13.394 8.009,13.349 c 0.29,-0.1 0.58,-0.2 0.871,-0.3 a 0.3,0.3 0 0 0 0.182,-0.13 c 0.213,-0.376 0.427,-0.751 0.637,-1.128 a 0.169,0.169 0 0 0 0.02,-0.122 0.372,0.372 0 0 0 -0.253,-0.271 c -0.3,-0.072 -0.6,-0.151 -0.908,-0.223 a 1,1 0 0 0 -0.177,-0.01 z m 4.774,-0.589 C 13.147,10.528 13.144,10.5 13.138,10.476 Q 13.05,10.055 12.96,9.633 a 0.307,0.307 0 0 1 0.052,-0.3 1.4,1.4 0 0 0 0.128,-0.19 c 0.234,-0.38 0.231,-0.269 0.126,-0.761 A 0.194,0.194 0 0 0 13.251,8.327 0.13,0.13 0 0 0 13.208,8.271 0.528,0.528 0 0 0 12.83,8.171 c -0.393,0.084 -0.789,0.157 -1.183,0.237 a 0.342,0.342 0 0 0 -0.284,0.329 c 0.084,0.016 0.169,0.026 0.252,0.048 a 0.524,0.524 0 0 0 0.348,-0.036 c 0.243,-0.1 0.492,-0.188 0.735,-0.289 a 0.321,0.321 0 0 1 0.263,0.007 0.278,0.278 0 0 1 0.116,0.394 C 12.97,9.009 12.861,9.154 12.748,9.297 a 0.193,0.193 0 0 0 -0.038,0.2 c 0.092,0.287 0.18,0.576 0.267,0.865 a 0.345,0.345 0 0 0 0.178,0.214 z M 8.593,5.3 7.306,5.39 V 5.08 L 8.447,4.991 V 4.8 L 7.308,4.882 V 4.6 L 8.59,4.5 C 8.59,4.461 8.598,4.433 8.598,4.405 A 0.957,0.957 0 0 0 8.589,4.305 L 7.1,4.415 V 5.6 L 8.6,5.486 Z M 12.6,5.2 c -0.354,0 -0.69,0 -1.025,0 -0.106,0 -0.145,-0.043 -0.147,-0.151 0,-0.149 0,-0.3 0,-0.446 0,-0.176 0.023,-0.2 0.2,-0.2 0.317,0 0.633,0 0.95,0 0.051,0 0.1,0 0.157,0 V 4.21 c -0.031,0 -0.054,-0.008 -0.078,-0.008 -0.345,0 -0.69,0 -1.036,0 A 0.84,0.84 0 0 0 11.464,4.22 0.251,0.251 0 0 0 11.23,4.471 c -0.011,0.225 -0.01,0.451 0,0.676 a 0.229,0.229 0 0 0 0.218,0.23 1.285,1.285 0 0 0 0.186,0.016 c 0.35,0 0.7,0 1.05,0 0.042,0 0.083,-0.006 0.135,-0.01 0.006,-0.237 0.01,-0.463 0,-0.692 H 12 v 0.191 h 0.6 z m 0.938,-0.78 1.3,0.047 v -0.19 c -0.5,-0.024 -1,-0.053 -1.508,-0.054 0,0.405 0,0.79 0,1.181 L 14.846,5.462 14.838,5.268 13.543,5.215 V 4.918 c 0.2,0 0.39,0 0.581,0 0.191,0 0.378,0.034 0.566,0.017 V 4.747 L 13.54,4.7 Z m 3.445,0.6 v 0 -0.3 A 0.291,0.291 0 0 0 16.756,4.425 0.61,0.61 0 0 0 16.616,4.397 C 16.325,4.373 16.033,4.352 15.742,4.331 a 0.927,0.927 0 0 0 -0.158,0 c -0.152,0.015 -0.231,0.084 -0.237,0.237 -0.008,0.22 -0.008,0.441 0,0.66 a 0.253,0.253 0 0 0 0.227,0.259 1.477,1.477 0 0 0 0.2,0.029 c 0.21,0.017 0.42,0.034 0.631,0.048 a 3.04,3.04 0 0 0 0.344,0.009 0.222,0.222 0 0 0 0.233,-0.239 C 16.989,5.232 16.985,5.127 16.985,5.021 Z M 5.26,5.435 C 5.533,5.403 5.785,5.376 6.037,5.345 A 3.557,3.557 0 0 0 6.391,5.292 0.259,0.259 0 0 0 6.61,5.072 1.7,1.7 0 0 0 6.61,4.701 0.213,0.213 0 0 0 6.41,4.507 0.636,0.636 0 0 0 6.255,4.5 C 6.022,4.523 5.789,4.547 5.555,4.574 5.39,4.593 5.225,4.616 5.055,4.638 V 5.824 L 5.255,5.8 Z M 9.316,4.27 9.1,4.281 v 0.167 c 0,0.221 0,0.442 0,0.662 0,0.244 0.085,0.325 0.331,0.334 H 9.46 c 0.307,-0.012 0.614,-0.019 0.921,-0.037 0.248,-0.015 0.326,-0.105 0.328,-0.357 0,-0.235 0,-0.47 0,-0.706 0,-0.037 -0.005,-0.074 -0.008,-0.116 h -0.2 c 0,0.053 -0.007,0.1 -0.008,0.147 0,0.23 0,0.461 0,0.691 0,0.118 -0.024,0.145 -0.142,0.151 Q 9.898,5.241 9.445,5.254 c -0.107,0 -0.133,-0.028 -0.135,-0.139 -0.002,-0.111 0,-0.24 0,-0.36 z m 9.625,0.363 -1.573,-0.175 v 0.2 l 0.684,0.077 V 5.721 L 18.268,5.75 V 4.757 l 0.673,0.071 z m -9.9,7.456 -0.031,-0.032 -0.95,0.784 0.013,0.027 c 0.17,-0.06 0.34,-0.118 0.51,-0.18 a 0.16,0.16 0 0 0 0.066,-0.053 c 0.134,-0.181 0.264,-0.364 0.394,-0.546 z m -1.856,-0.4 a 0.509,0.509 0 0 0 -0.377,0.254 l 0.282,0.326 a 1.008,1.008 0 0 0 0.027,-0.1 c 0.024,-0.152 0.045,-0.303 0.07,-0.481 z M 8.443,9.13 8.43,9.4 C 8.717,9.37 8.762,9.319 8.686,9.119 Z M 3.166,2.986 a 52.107,52.107 0 0 1 7.889,-0.76 51.553,51.553 0 0 1 9.773,0.759 c 0,0.036 0.012,0.064 0.013,0.092 0.039,1.123 0.072,2.245 0.054,3.369 a 27.6,27.6 0 0 1 -0.256,3.454 17.131,17.131 0 0 1 -1.164,4.322 14.428,14.428 0 0 1 -5.509,6.505 14.565,14.565 0 0 1 -1.866,1.03 0.216,0.216 0 0 1 -0.2,0 A 14.478,14.478 0 0 1 3.968,12.686 17.74,17.74 0 0 1 3.354,9.848 28.908,28.908 0 0 1 3.1,5.5 C 3.108,4.708 3.135,3.917 3.154,3.125 3.157,3.081 3.162,3.038 3.166,2.986 Z m 0.362,0.367 c 0,0.073 0,0.125 0,0.178 -0.01,0.389 -0.02,0.777 -0.032,1.166 a 35.292,35.292 0 0 0 0.086,3.943 21.248,21.248 0 0 0 0.382,2.633 14.587,14.587 0 0 0 1.366,3.854 14.109,14.109 0 0 0 6.553,6.208 0.258,0.258 0 0 0 0.243,-0.006 13.963,13.963 0 0 0 2.01,-1.148 13.9,13.9 0 0 0 4.825,-5.645 16.2,16.2 0 0 0 1.306,-4.578 24.2,24.2 0 0 0 0.244,-3.315 c 0,-0.9 -0.015,-1.8 -0.026,-2.707 0,-0.191 -0.015,-0.382 -0.023,-0.584 a 49.209,49.209 0 0 0 -16.934,0 z"/>

</svg>
